X:1
T:Booth Shot Lincoln
C:Trad. (Marcus Martin)
Z:Mary Gordon
M:4/4
L:1/8
K:A
|: "A"a2 ec AceA | "D"d2 fd AFdA | "A"a2 ec AceA | "D"dAFA dfAd |\
"A"a2 ec AceA | "D"d2 fd A2dA | "A"ecAc ecAB |[1 "E"B4 "A"A4 :|[2 "A"A8 ||
|: "A"a2 ec AceA | "D"d2 fd AFdA | "A"a2 ec AceA | "D"dAFA dfAd |\
"A"a2 ec AceA | "D"d2 fd A2dA | "A"ecAc ecAB | "E"e4 "A"A4 |\
"D"d>e fd AfdA | "A"a>g ea ceAc | "A"a2 ea ceAc | "D"d>e fd AfdA |\
"A"a2 ec AceA | "D"d2 fd A2dA | "A"ecAc "E"e2AB | "A"A8 :|